packages/symbols/svgs/outline/grip-vertical-outline.svg

<svg width="24" height="24" viewBox="0 0 24 24" fill="none" xmlns="http://www.w3.org/2000/svg">
<path fill-rule="evenodd" clip-rule="evenodd" d="M5 2C5 1.44772 5.44772 1 6 1H10C10.5523 1 11 1.44772 11 2V6C11 6.55228 10.5523 7 10 7H6C5.44772 7 5 6.55228 5 6V2ZM7 3V5H9V3H7Z" fill="black"/>
<path fill-rule="evenodd" clip-rule="evenodd" d="M5 10C5 9.44772 5.44772 9 6 9H10C10.5523 9 11 9.44772 11 10V14C11 14.5523 10.5523 15 10 15H6C5.44772 15 5 14.5523 5 14V10ZM7 11V13H9V11H7Z" fill="black"/>
<path fill-rule="evenodd" clip-rule="evenodd" d="M5 18C5 17.4477 5.44772 17 6 17H10C10.5523 17 11 17.4477 11 18V22C11 22.5523 10.5523 23 10 23H6C5.44772 23 5 22.5523 5 22V18ZM7 19V21H9V19H7Z" fill="black"/>
<path fill-rule="evenodd" clip-rule="evenodd" d="M13 2C13 1.44772 13.4477 1 14 1H18C18.5523 1 19 1.44772 19 2V6C19 6.55228 18.5523 7 18 7H14C13.4477 7 13 6.55228 13 6V2ZM15 3V5H17V3H15Z" fill="black"/>
<path fill-rule="evenodd" clip-rule="evenodd" d="M13 10C13 9.44772 13.4477 9 14 9H18C18.5523 9 19 9.44772 19 10V14C19 14.5523 18.5523 15 18 15H14C13.4477 15 13 14.5523 13 14V10ZM15 11V13H17V11H15Z" fill="black"/>
<path fill-rule="evenodd" clip-rule="evenodd" d="M13 18C13 17.4477 13.4477 17 14 17H18C18.5523 17 19 17.4477 19 18V22C19 22.5523 18.5523 23 18 23H14C13.4477 23 13 22.5523 13 22V18ZM15 19V21H17V19H15Z" fill="black"/>
</svg>

<svg width="24" height="24" viewBox="0 0 24 24" xmlns="http://www.w3.org/2000/svg"><path fill-rule="evenodd" clip-rule="evenodd" d="M5 2a1 1 0 0 1 1-1h4a1 1 0 0 1 1 1v4a1 1 0 0 1-1 1H6a1 1 0 0 1-1-1V2Zm2 1v2h2V3H7Zm-2 7a1 1 0 0 1 1-1h4a1 1 0 0 1 1 1v4a1 1 0 0 1-1 1H6a1 1 0 0 1-1-1v-4Zm2 1v2h2v-2H7Zm-2 7a1 1 0 0 1 1-1h4a1 1 0 0 1 1 1v4a1 1 0 0 1-1 1H6a1 1 0 0 1-1-1v-4Zm2 1v2h2v-2H7Zm6-17a1 1 0 0 1 1-1h4a1 1 0 0 1 1 1v4a1 1 0 0 1-1 1h-4a1 1 0 0 1-1-1V2Zm2 1v2h2V3h-2Zm-2 7a1 1 0 0 1 1-1h4a1 1 0 0 1 1 1v4a1 1 0 0 1-1 1h-4a1 1 0 0 1-1-1v-4Zm2 1v2h2v-2h-2Zm-2 7a1 1 0 0 1 1-1h4a1 1 0 0 1 1 1v4a1 1 0 0 1-1 1h-4a1 1 0 0 1-1-1v-4Zm2 1v2h2v-2h-2Z"/></svg>
